static/assets/images/products/kubedb/kubedb-icon.svg

<svg width="64" height="64" viewBox="0 0 64 64" fill="none" xmlns="http://www.w3.org/2000/svg">
<path d="M60.2344 14.3613V50.709L31.7039 62.8269V46.8004L47.7274 40.1564V19.4431L60.2344 14.3613Z" fill="#7272E9"/>
<path d="M31.7041 1.85728L60.2346 14.3613L47.7277 19.4431L31.7041 12.4099L15.6806 19.4431L3.56274 14.3613L31.7041 1.85728Z" fill="#7272E9"/>
<path d="M31.7041 46.8004V62.8269L3.56274 50.709V14.3613L15.6806 19.4431V40.1564L31.7041 46.8004Z" fill="#7272E9"/>
<path d="M62.1888 14.3642V13.9722V13.5801L61.7968 13.191L32.4852 0.292034C32.2685 0.103711 31.9911 0 31.704 0C31.417 0 31.1396 0.103711 30.9229 0.292034L2.39241 12.4099L2.00037 12.799V13.191V13.5801V49.9278C1.99286 50.3305 2.09857 50.7272 2.30546 51.0727C2.51236 51.4182 2.81212 51.6987 3.17062 51.8821L31.3091 64H33.6496L61.788 51.8821C62.147 51.6992 62.4471 51.4189 62.6541 51.0732C62.8611 50.7276 62.9665 50.3306 62.9583 49.9278L62.1771 14.3642H62.1888ZM31.704 4.20064L54.7637 14.3642L47.7276 17.4887L32.4852 10.8447C32.2685 10.6564 31.9911 10.5527 31.704 10.5527C31.417 10.5527 31.1396 10.6564 30.9229 10.8447L15.6805 17.0996H15.2885L8.64442 14.3642L31.704 4.20064ZM29.7497 59.6994L5.51695 49.135V17.0996L13.7262 20.6104V39.7731C13.7183 40.1758 13.8239 40.5726 14.0308 40.9182C14.2378 41.2638 14.5377 41.5442 14.8964 41.7274L29.7497 47.9648V59.6994ZM31.704 44.849L17.6348 38.9978V21.0082L31.704 14.7533L45.7733 21.0082V38.9861L31.704 44.849ZM57.8911 49.135L33.6583 59.6877V48.3656L48.5087 42.1136C48.8679 41.9309 49.1682 41.6506 49.3752 41.3049C49.5822 40.9592 49.6875 40.5621 49.6789 40.1592V20.6162L57.8882 17.1055L57.8911 49.135Z" fill="#4949A3"/>
<path d="M47.7274 40.1564V19.4431L31.7039 12.4099V33.1232L47.7274 40.1564Z" fill="white"/>
<path d="M47.7277 40.1564L31.7042 33.1232L15.6807 40.1564L31.7042 46.8004L47.7277 40.1564Z" fill="white"/>
<path d="M31.7042 33.1232V12.4099L15.6807 19.4431V40.1564L31.7042 33.1232Z" fill="white"/>
<path d="M48.5085 17.4888L32.485 10.8447H30.1445L14.9021 17.4888C14.118 17.8808 13.3369 18.659 13.3369 19.4431V40.1564C13.3369 40.9404 13.7289 41.7216 14.9021 42.1107L30.9227 49.1351C31.1374 49.3275 31.4156 49.4339 31.7039 49.4339C31.9922 49.4339 32.2703 49.3275 32.485 49.1351L48.5085 42.1136C49.2926 41.7245 50.0737 40.9434 50.0737 40.1593V19.446C50.0737 18.662 49.2926 17.8808 48.5085 17.4888ZM17.6463 21.0083L29.7613 15.9265V32.3421L17.6463 37.4326V21.0083ZM31.7156 44.849L20.7709 40.1681L31.7156 35.4871L42.6602 40.1681L31.7156 44.849ZM45.7848 37.0318L33.6699 31.9501V15.5345L45.7848 20.6163V37.0318Z" fill="#4949A3"/>
</svg>

<svg xmlns="http://www.w3.org/2000/svg" width="64" height="64" fill="none" xmlns:v="https://vecta.io/nano"><g fill="#7272e9"><path d="M60.234 14.361v36.348l-28.53 12.118V46.8l16.024-6.644V19.443l12.507-5.082z"/><path d="M31.704 1.857l28.531 12.504-12.507 5.082-16.024-7.033-16.023 7.033-12.118-5.082L31.704 1.857z"/><path d="M31.704 46.8v16.026L3.563 50.709V14.361l12.118 5.082v20.713L31.704 46.8z"/></g><path d="M62.189 14.364v-.392-.392l-.392-.389L32.485.292a1.19 1.19 0 0 0-1.562 0L2.392 12.41 2 12.799v.392.389 36.348a2.15 2.15 0 0 0 1.17 1.954L31.309 64h2.34l28.138-12.118c.359-.183.659-.463.866-.809s.312-.743.304-1.145l-.781-35.564h.012zM31.704 4.201l23.06 10.164-7.036 3.125-15.242-6.644a1.19 1.19 0 0 0-1.562 0L15.681 17.1h-.392l-6.644-2.735 23.06-10.164zM29.75 59.699L5.517 49.135V17.1l8.209 3.511v19.163c-.008.403.098.8.305 1.145a2.15 2.15 0 0 0 .866.809l14.853 6.237v11.735zm1.954-14.85l-14.069-5.851v-17.99l14.069-6.255 14.069 6.255v17.978l-14.069 5.863zm26.187 4.286L33.658 59.688V48.366l14.85-6.252a2.14 2.14 0 0 0 1.17-1.954V20.616l8.209-3.511.003 32.03z" fill="#4949a3"/><g fill="#fff"><path d="M47.727 40.156V19.443L31.704 12.41v20.713l16.024 7.033z"/><path d="M47.728 40.156l-16.023-7.033-16.023 7.033L31.704 46.8l16.023-6.644z"/><path d="M31.704 33.123V12.41l-16.023 7.033v20.713l16.023-7.033z"/></g><path d="M48.509 17.489l-16.023-6.644h-2.34l-15.242 6.644c-.784.392-1.565 1.17-1.565 1.954v20.713c0 .784.392 1.565 1.565 1.954l16.021 7.024a1.17 1.17 0 0 0 1.562 0l16.023-7.022c.784-.389 1.565-1.17 1.565-1.954V19.446c0-.784-.781-1.565-1.565-1.957zm-30.862 3.519l12.115-5.082v16.416l-12.115 5.09V21.008zm14.069 23.841l-10.945-4.681 10.945-4.681 10.945 4.681-10.945 4.681zm14.069-7.817L33.67 31.95V15.535l12.115 5.082v16.415z" fill="#4949a3"/></svg>
